app/assets/images/icons/active/grid.svg

<svg width="32" height="232" viewBox="0 0 32 232" xmlns="http://www.w3.org/2000/svg" xmlns:sketch="http://www.bohemiancoding.com/sketch/ns"><title>grid</title><g sketch:type="MSPage" fill="none"><path d="M26.603 135.522h-7.699c-1.066 0-1.93-.861-1.93-1.925v-7.672c0-1.061.864-1.925 1.93-1.925h7.699c1.065 0 1.926.864 1.926 1.925v7.672c0 1.064-.861 1.925-1.926 1.925zm-13.478 0h-7.698c-1.066 0-1.927-.861-1.927-1.925v-7.672c0-1.061.861-1.925 1.927-1.925h7.698c1.066 0 1.927.864 1.927 1.925v7.672c0 1.064-.861 1.925-1.927 1.925zm0 13.478h-7.698c-1.066 0-1.927-.863-1.927-1.924v-7.672c0-1.063.861-1.926 1.927-1.926h7.698c1.066 0 1.927.863 1.927 1.926v7.672c0 1.061-.861 1.924-1.927 1.924zm13.478 0h-7.699c-1.066 0-1.93-.863-1.93-1.924v-7.672c0-1.063.864-1.926 1.93-1.926h7.699c1.065 0 1.926.863 1.926 1.926v7.672c0 1.061-.861 1.924-1.926 1.924zm0 0" fill="#206FAC" sketch:type="MSShapeGroup"/><path d="M26.603 95.522h-7.699c-1.066 0-1.93-.861-1.93-1.925v-7.672c0-1.061.864-1.925 1.93-1.925h7.699c1.065 0 1.926.864 1.926 1.925v7.672c0 1.064-.861 1.925-1.926 1.925zm-13.478 0h-7.698c-1.066 0-1.927-.861-1.927-1.925v-7.672c0-1.061.861-1.925 1.927-1.925h7.698c1.066 0 1.927.864 1.927 1.925v7.672c0 1.064-.861 1.925-1.927 1.925zm0 13.478h-7.698c-1.066 0-1.927-.863-1.927-1.924v-7.672c0-1.063.861-1.926 1.927-1.926h7.698c1.066 0 1.927.863 1.927 1.926v7.672c0 1.061-.861 1.924-1.927 1.924zm13.478 0h-7.699c-1.066 0-1.93-.863-1.93-1.924v-7.672c0-1.063.864-1.926 1.93-1.926h7.699c1.065 0 1.926.863 1.926 1.926v7.672c0 1.061-.861 1.924-1.926 1.924zm0 0" fill="#fff" sketch:type="MSShapeGroup"/><path d="M26.603 55.522h-7.699c-1.066 0-1.93-.861-1.93-1.925v-7.672c0-1.061.864-1.925 1.93-1.925h7.699c1.065 0 1.926.864 1.926 1.925v7.672c0 1.064-.861 1.925-1.926 1.925zm-13.478 0h-7.698c-1.066 0-1.927-.861-1.927-1.925v-7.672c0-1.061.861-1.925 1.927-1.925h7.698c1.066 0 1.927.864 1.927 1.925v7.672c0 1.064-.861 1.925-1.927 1.925zm0 13.478h-7.698c-1.066 0-1.927-.863-1.927-1.924v-7.672c0-1.063.861-1.926 1.927-1.926h7.698c1.066 0 1.927.863 1.927 1.926v7.672c0 1.061-.861 1.924-1.927 1.924zm13.478 0h-7.699c-1.066 0-1.93-.863-1.93-1.924v-7.672c0-1.063.864-1.926 1.93-1.926h7.699c1.065 0 1.926.863 1.926 1.926v7.672c0 1.061-.861 1.924-1.926 1.924zm0 0" fill="#67737B" sketch:type="MSShapeGroup"/><path d="M26.603 15.522h-7.699c-1.066 0-1.93-.861-1.93-1.925v-7.672c0-1.061.864-1.925 1.93-1.925h7.699c1.065 0 1.926.864 1.926 1.925v7.672c0 1.064-.861 1.925-1.926 1.925zm-13.478 0h-7.698c-1.066 0-1.927-.861-1.927-1.925v-7.672c0-1.061.861-1.925 1.927-1.925h7.698c1.066 0 1.927.864 1.927 1.925v7.672c0 1.064-.861 1.925-1.927 1.925zm0 13.478h-7.698c-1.066 0-1.927-.863-1.927-1.924v-7.672c0-1.063.861-1.926 1.927-1.926h7.698c1.066 0 1.927.863 1.927 1.926v7.672c0 1.061-.861 1.924-1.927 1.924zm13.478 0h-7.699c-1.066 0-1.93-.863-1.93-1.924v-7.672c0-1.063.864-1.926 1.93-1.926h7.699c1.065 0 1.926.863 1.926 1.926v7.672c0 1.061-.861 1.924-1.926 1.924zm0 0" fill="#3A434E" sketch:type="MSShapeGroup"/></g></svg>

<?xml version="1.0" encoding="UTF-8" standalone="no"?>
<svg width="32px" height="232px" viewBox="0 0 32 232" version="1.1" xmlns="http://www.w3.org/2000/svg" xmlns:xlink="http://www.w3.org/1999/xlink" xmlns:sketch="http://www.bohemiancoding.com/sketch/ns">
    <title>grid</title>
    <description>Created with Sketch (http://www.bohemiancoding.com/sketch)</description>
    <defs></defs>
    <g id="Actions" stroke="none" stroke-width="1" fill="none" fill-rule="evenodd" sketch:type="MSPage">
        <path d="M26.603,135.522 L18.904,135.522 C17.838,135.522 16.974,134.661 16.974,133.597 L16.974,125.925 C16.974,124.864 17.838,124 18.904,124 L26.603,124 C27.668,124 28.529,124.864 28.529,125.925 L28.529,133.597 C28.529,134.661 27.668,135.522 26.603,135.522 L26.603,135.522 L26.603,135.522 L26.603,135.522 Z M13.125,135.522 L5.427,135.522 C4.361,135.522 3.5,134.661 3.5,133.597 L3.5,125.925 C3.5,124.864 4.361,124 5.427,124 L13.125,124 C14.191,124 15.052,124.864 15.052,125.925 L15.052,133.597 C15.052,134.661 14.191,135.522 13.125,135.522 L13.125,135.522 L13.125,135.522 L13.125,135.522 Z M13.125,149 L5.427,149 C4.361,149 3.5,148.137 3.5,147.076 L3.5,139.404 C3.5,138.341 4.361,137.478 5.427,137.478 L13.125,137.478 C14.191,137.478 15.052,138.341 15.052,139.404 L15.052,147.076 C15.052,148.137 14.191,149 13.125,149 L13.125,149 L13.125,149 L13.125,149 Z M26.603,149 L18.904,149 C17.838,149 16.974,148.137 16.974,147.076 L16.974,139.404 C16.974,138.341 17.838,137.478 18.904,137.478 L26.603,137.478 C27.668,137.478 28.529,138.341 28.529,139.404 L28.529,147.076 C28.529,148.137 27.668,149 26.603,149 L26.603,149 Z M26.603,149" id="grid--lp-blue" fill="#206FAC" sketch:type="MSShapeGroup"></path>
        <path d="M26.603,95.522 L18.904,95.522 C17.838,95.522 16.974,94.661 16.974,93.597 L16.974,85.925 C16.974,84.864 17.838,84 18.904,84 L26.603,84 C27.668,84 28.529,84.864 28.529,85.925 L28.529,93.597 C28.529,94.661 27.668,95.522 26.603,95.522 L26.603,95.522 L26.603,95.522 L26.603,95.522 Z M13.125,95.522 L5.427,95.522 C4.361,95.522 3.5,94.661 3.5,93.597 L3.5,85.925 C3.5,84.864 4.361,84 5.427,84 L13.125,84 C14.191,84 15.052,84.864 15.052,85.925 L15.052,93.597 C15.052,94.661 14.191,95.522 13.125,95.522 L13.125,95.522 L13.125,95.522 L13.125,95.522 Z M13.125,109 L5.427,109 C4.361,109 3.5,108.137 3.5,107.076 L3.5,99.404 C3.5,98.341 4.361,97.478 5.427,97.478 L13.125,97.478 C14.191,97.478 15.052,98.341 15.052,99.404 L15.052,107.076 C15.052,108.137 14.191,109 13.125,109 L13.125,109 L13.125,109 L13.125,109 Z M26.603,109 L18.904,109 C17.838,109 16.974,108.137 16.974,107.076 L16.974,99.404 C16.974,98.341 17.838,97.478 18.904,97.478 L26.603,97.478 C27.668,97.478 28.529,98.341 28.529,99.404 L28.529,107.076 C28.529,108.137 27.668,109 26.603,109 L26.603,109 Z M26.603,109" id="grid--white" fill="#FFFFFF" sketch:type="MSShapeGroup"></path>
        <path d="M26.603,55.522 L18.904,55.522 C17.838,55.522 16.974,54.661 16.974,53.597 L16.974,45.925 C16.974,44.864 17.838,44 18.904,44 L26.603,44 C27.668,44 28.529,44.864 28.529,45.925 L28.529,53.597 C28.529,54.661 27.668,55.522 26.603,55.522 L26.603,55.522 L26.603,55.522 L26.603,55.522 Z M13.125,55.522 L5.427,55.522 C4.361,55.522 3.5,54.661 3.5,53.597 L3.5,45.925 C3.5,44.864 4.361,44 5.427,44 L13.125,44 C14.191,44 15.052,44.864 15.052,45.925 L15.052,53.597 C15.052,54.661 14.191,55.522 13.125,55.522 L13.125,55.522 L13.125,55.522 L13.125,55.522 Z M13.125,69 L5.427,69 C4.361,69 3.5,68.137 3.5,67.076 L3.5,59.404 C3.5,58.341 4.361,57.478 5.427,57.478 L13.125,57.478 C14.191,57.478 15.052,58.341 15.052,59.404 L15.052,67.076 C15.052,68.137 14.191,69 13.125,69 L13.125,69 L13.125,69 L13.125,69 Z M26.603,69 L18.904,69 C17.838,69 16.974,68.137 16.974,67.076 L16.974,59.404 C16.974,58.341 17.838,57.478 18.904,57.478 L26.603,57.478 C27.668,57.478 28.529,58.341 28.529,59.404 L28.529,67.076 C28.529,68.137 27.668,69 26.603,69 L26.603,69 Z M26.603,69" id="grid--body-grey" fill="#67737B" sketch:type="MSShapeGroup"></path>
        <path d="M26.603,15.522 L18.904,15.522 C17.838,15.522 16.974,14.661 16.974,13.597 L16.974,5.925 C16.974,4.864 17.838,4 18.904,4 L26.603,4 C27.668,4 28.529,4.864 28.529,5.925 L28.529,13.597 C28.529,14.661 27.668,15.522 26.603,15.522 L26.603,15.522 L26.603,15.522 L26.603,15.522 Z M13.125,15.522 L5.427,15.522 C4.361,15.522 3.5,14.661 3.5,13.597 L3.5,5.925 C3.5,4.864 4.361,4 5.427,4 L13.125,4 C14.191,4 15.052,4.864 15.052,5.925 L15.052,13.597 C15.052,14.661 14.191,15.522 13.125,15.522 L13.125,15.522 L13.125,15.522 L13.125,15.522 Z M13.125,29 L5.427,29 C4.361,29 3.5,28.137 3.5,27.076 L3.5,19.404 C3.5,18.341 4.361,17.478 5.427,17.478 L13.125,17.478 C14.191,17.478 15.052,18.341 15.052,19.404 L15.052,27.076 C15.052,28.137 14.191,29 13.125,29 L13.125,29 L13.125,29 L13.125,29 Z M26.603,29 L18.904,29 C17.838,29 16.974,28.137 16.974,27.076 L16.974,19.404 C16.974,18.341 17.838,17.478 18.904,17.478 L26.603,17.478 C27.668,17.478 28.529,18.341 28.529,19.404 L28.529,27.076 C28.529,28.137 27.668,29 26.603,29 L26.603,29 Z M26.603,29" id="grid--title-grey" fill="#3A434E" sketch:type="MSShapeGroup"></path>
    </g>
</svg>
